X: 30648
T: Ookpik
R: waltz
M: 3/4
K: Gmajor
DE>F|"G" G3 F G>B|"D"A2 G2 E>D|"C"E2 G3 A|"G"G2B2 d2|"Em"e3 d e>f|"C"e2 d2 B>G|"G"B2 d3e|d2 B2 d2|
"Em"e3 d e>g|"C"e2 d2 B>A|"G"B2 d2 B>A|"Em"G2 E2 D2|"C"C3 D E>G|"D"A2 F2 E>D|"C"E2 G3 A|1 "G" G3 DE>D:|2 "G"G2 B2 d2||
"Em"e2 B3A|B4 e2|"Bm"d2 B3A|B4 _B2|"Am"A3 G A>B|A2 G2 E>D|"Em"E2 G3 A|"D"G2 B2 d2|
"Em"e2 B3A|B4 g2|"Bm"f2 B3A|B4 _B2|"Am"A3 G A>B|A2 G2 E>D|"Em"E3 F G>E|"D" D2 E2 F2|

